X:1
T:Hopping Biddy
C:Traditional
S:Mickey Doherty
R:Highland
M:C
I:Transcribed by Larry Sanger  from The Donegal Fiddle (RTE 196).
K:D
d2 || B>d {Bc}B>A B<d d>g | e<d g>d e<g d2 | B>d {Bc}B>A B<d d>f | {a}g>e d<B
{AB}A2 G>A |
B>d {Bc}B>A B<d d>g | e<d g>d e>d e<g | B>d {Bc}B>A B<d e>f | {a}g>e dE ||
A2 a2 {b}a>f e>d | e>d B<G B2 d2 | {ef}e2 e>d (3Bcd e>a | {ga}g>e dE |
A2 a2 {b}a>f e>d | {ef}e>d B<G B2 d2 | {ef}e2 e>d (3Bcd  f>a | {ga}g>e d<B {AB}A2
G>A ||
